attachment-check.svg

<svg fill="currentColor" viewBox="0 0 24 24"><path d="M16.61 13.5c-.8.35-1.5.86-2.07 1.5H9.5a2.5 2.5 0 0 1 0-5H17v1.5H9.5c-.55 0-1 .45-1 1s.45 1 1 1zm-13.11-1c0-2.21 1.79-4 4-4H18a2.495 2.495 0 0 1 1.45 4.53c.6.04 1.18.17 1.72.38.52-.67.83-1.5.83-2.41 0-2.21-1.79-4-4-4H7.5C4.46 7 2 9.46 2 12.5S4.46 18 7.5 18h5.59c.09-.53.25-1.03.46-1.5H7.5c-2.21 0-4-1.79-4-4m17.84 3.34-3.59 3.59-1.59-1.59L15 19l2.75 3 4.75-4.75z"/></svg>

<svg  viewBox="0 0 24 24" fill="currentColor"><path  d="M16.61 13.5C15.81 13.85 15.11 14.36 14.54 15H9.5C8.12 15 7 13.88 7 12.5S8.12 10 9.5 10H17V11.5H9.5C8.95 11.5 8.5 11.95 8.5 12.5S8.95 13.5 9.5 13.5H16.61M3.5 12.5C3.5 10.29 5.29 8.5 7.5 8.5H18C19.38 8.5 20.5 9.62 20.5 11C20.5 11.84 20.08 12.58 19.45 13.03C20.05 13.07 20.63 13.2 21.17 13.41C21.69 12.74 22 11.91 22 11C22 8.79 20.21 7 18 7H7.5C4.46 7 2 9.46 2 12.5S4.46 18 7.5 18H13.09C13.18 17.47 13.34 16.97 13.55 16.5H7.5C5.29 16.5 3.5 14.71 3.5 12.5M21.34 15.84L17.75 19.43L16.16 17.84L15 19L17.75 22L22.5 17.25L21.34 15.84Z"/></svg>
